im/pushpin.svg

<svg version="1.1" xmlns="http://www.w3.org/2000/svg" viewBox="0 0 16 16" height="1em" width="1em">
  <path fill="#000000" d="M8.5 0l-1.5 1.5 1.5 1.5-3.5 4h-3.5l2.75 2.75-4.25 5.635v0.615h0.615l5.635-4.25 2.75 2.75v-3.5l4-3.5 1.5 1.5 1.5-1.5-7.5-7.5zM7 8.5l-1-1 3.5-3.5 1 1-3.5 3.5z"/>
</svg>

<svg xmlns="http://www.w3.org/2000/svg" viewBox="0 0 16 16" height="1em" width="1em">
  <path d="M8.5 0 7 1.5 8.5 3 5 7H1.5l2.75 2.75L0 15.385V16h.615l5.635-4.25L9 14.5V11l4-3.5L14.5 9 16 7.5 8.5 0zM7 8.5l-1-1L9.5 4l1 1L7 8.5z"/>
</svg>
